images/2577.svg

<?xml version="1.0" encoding="UTF-8"?>
<svg xmlns="http://www.w3.org/2000/svg" xmlns:xlink="http://www.w3.org/1999/xlink" width="300pt" height="300pt" viewBox="0 0 300 300" version="1.1">
<defs>
<g>
<symbol overflow="visible" id="glyph0-0">
<path style="stroke:none;" d="M 0.453125 1.59375 L 0.453125 -6.34375 L 4.953125 -6.34375 L 4.953125 1.59375 Z M 0.953125 1.09375 L 4.453125 1.09375 L 4.453125 -5.84375 L 0.953125 -5.84375 Z M 0.953125 1.09375 "/>
</symbol>
<symbol overflow="visible" id="glyph0-1">
<path style="stroke:none;" d="M 0.890625 -6.5625 L 2.078125 -6.5625 L 4.984375 -1.078125 L 4.984375 -6.5625 L 5.84375 -6.5625 L 5.84375 0 L 4.65625 0 L 1.75 -5.484375 L 1.75 0 L 0.890625 0 Z M 0.890625 -6.5625 "/>
</symbol>
<symbol overflow="visible" id="glyph0-2">
<path style="stroke:none;" d="M 0.890625 -6.5625 L 1.765625 -6.5625 L 1.765625 -3.875 L 5 -3.875 L 5 -6.5625 L 5.890625 -6.5625 L 5.890625 0 L 5 0 L 5 -3.125 L 1.765625 -3.125 L 1.765625 0 L 0.890625 0 Z M 0.890625 -6.5625 "/>
</symbol>
<symbol overflow="visible" id="glyph0-3">
<path style="stroke:none;" d="M 3.546875 -5.953125 C 2.898438 -5.953125 2.382812 -5.710938 2 -5.234375 C 1.625 -4.753906 1.4375 -4.101562 1.4375 -3.28125 C 1.4375 -2.445312 1.625 -1.789062 2 -1.3125 C 2.382812 -0.832031 2.898438 -0.59375 3.546875 -0.59375 C 4.191406 -0.59375 4.703125 -0.832031 5.078125 -1.3125 C 5.453125 -1.789062 5.640625 -2.445312 5.640625 -3.28125 C 5.640625 -4.101562 5.453125 -4.753906 5.078125 -5.234375 C 4.703125 -5.710938 4.191406 -5.953125 3.546875 -5.953125 Z M 3.546875 -6.6875 C 4.460938 -6.6875 5.195312 -6.375 5.75 -5.75 C 6.300781 -5.132812 6.578125 -4.3125 6.578125 -3.28125 C 6.578125 -2.238281 6.300781 -1.410156 5.75 -0.796875 C 5.195312 -0.179688 4.460938 0.125 3.546875 0.125 C 2.617188 0.125 1.878906 -0.179688 1.328125 -0.796875 C 0.773438 -1.410156 0.5 -2.238281 0.5 -3.28125 C 0.5 -4.3125 0.773438 -5.132812 1.328125 -5.75 C 1.878906 -6.375 2.617188 -6.6875 3.546875 -6.6875 Z M 3.546875 -6.6875 "/>
</symbol>
<symbol overflow="visible" id="glyph0-4">
<path style="stroke:none;" d="M 0.890625 -6.5625 L 4.65625 -6.5625 L 4.65625 -5.8125 L 1.765625 -5.8125 L 1.765625 -3.875 L 4.375 -3.875 L 4.375 -3.140625 L 1.765625 -3.140625 L 1.765625 0 L 0.890625 0 Z M 0.890625 -6.5625 "/>
</symbol>
</g>
</defs>
<g id="surface49685">
<rect x="0" y="0" width="300" height="300" style="fill:rgb(100%,100%,100%);fill-opacity:1;stroke:none;"/>
<path style="fill:none;stroke-width:1.2;stroke-linecap:butt;stroke-linejoin:miter;stroke:rgb(0%,0%,0%);stroke-opacity:1;stroke-miterlimit:10;" d="M 35.25 135.34375 L 53.957031 150.0625 "/>
<path style="fill:none;stroke-width:1.2;stroke-linecap:butt;stroke-linejoin:miter;stroke:rgb(0%,0%,0%);stroke-opacity:1;stroke-miterlimit:10;" d="M 53.957031 150.0625 L 76.050781 141.21875 "/>
<path style="fill:none;stroke-width:1.2;stroke-linecap:butt;stroke-linejoin:miter;stroke:rgb(0%,0%,0%);stroke-opacity:1;stroke-miterlimit:10;" d="M 76.050781 141.21875 L 94.757812 155.933594 "/>
<path style="fill:none;stroke-width:1.2;stroke-linecap:butt;stroke-linejoin:miter;stroke:rgb(0%,0%,0%);stroke-opacity:1;stroke-miterlimit:10;" d="M 94.757812 155.933594 L 116.855469 147.09375 "/>
<path style="fill:none;stroke-width:1.2;stroke-linecap:butt;stroke-linejoin:miter;stroke:rgb(0%,0%,0%);stroke-opacity:1;stroke-miterlimit:10;" d="M 116.855469 147.09375 L 135.558594 161.808594 "/>
<path style="fill:none;stroke-width:1.2;stroke-linecap:butt;stroke-linejoin:miter;stroke:rgb(0%,0%,0%);stroke-opacity:1;stroke-miterlimit:10;" d="M 135.558594 161.808594 L 146.609375 157.386719 "/>
<path style="fill:none;stroke-width:1.2;stroke-linecap:butt;stroke-linejoin:miter;stroke:rgb(0%,0%,100%);stroke-opacity:1;stroke-miterlimit:10;" d="M 146.609375 157.386719 L 157.65625 152.96875 "/>
<path style="fill:none;stroke-width:1.2;stroke-linecap:butt;stroke-linejoin:miter;stroke:rgb(0%,0%,100%);stroke-opacity:1;stroke-miterlimit:10;" d="M 157.65625 152.96875 L 167.011719 160.324219 "/>
<path style="fill:none;stroke-width:1.2;stroke-linecap:butt;stroke-linejoin:miter;stroke:rgb(0%,0%,0%);stroke-opacity:1;stroke-miterlimit:10;" d="M 167.011719 160.324219 L 176.363281 167.683594 "/>
<path style=" stroke:none;fill-rule:nonzero;fill:rgb(100%,100%,100%);fill-opacity:1;" d="M 150.65625 147.46875 L 164.65625 147.46875 L 164.65625 158.46875 L 150.65625 158.46875 Z M 150.65625 147.46875 "/>
<g style="fill:rgb(0%,0%,100%);fill-opacity:1;">
  <use xlink:href="#glyph0-1" x="150.65625" y="156.131836"/>
  <use xlink:href="#glyph0-2" x="157.633789" y="156.131836"/>
</g>
<path style="fill:none;stroke-width:1.2;stroke-linecap:butt;stroke-linejoin:miter;stroke:rgb(0%,0%,0%);stroke-opacity:1;stroke-miterlimit:10;" d="M 173.589844 167.285156 L 171.894531 179.0625 "/>
<path style="fill:none;stroke-width:1.2;stroke-linecap:butt;stroke-linejoin:miter;stroke:rgb(100%,0%,0%);stroke-opacity:1;stroke-miterlimit:10;" d="M 171.894531 179.0625 L 170.199219 190.839844 "/>
<path style="fill:none;stroke-width:1.2;stroke-linecap:butt;stroke-linejoin:miter;stroke:rgb(0%,0%,0%);stroke-opacity:1;stroke-miterlimit:10;" d="M 179.132812 168.082031 L 177.4375 179.859375 "/>
<path style="fill:none;stroke-width:1.2;stroke-linecap:butt;stroke-linejoin:miter;stroke:rgb(100%,0%,0%);stroke-opacity:1;stroke-miterlimit:10;" d="M 177.4375 179.859375 L 175.742188 191.640625 "/>
<path style="fill:none;stroke-width:1.2;stroke-linecap:butt;stroke-linejoin:miter;stroke:rgb(0%,0%,0%);stroke-opacity:1;stroke-miterlimit:10;" d="M 176.363281 167.683594 L 187.410156 163.261719 "/>
<path style="fill:none;stroke-width:1.2;stroke-linecap:butt;stroke-linejoin:miter;stroke:rgb(0%,0%,100%);stroke-opacity:1;stroke-miterlimit:10;" d="M 187.410156 163.261719 L 198.460938 158.839844 "/>
<path style=" stroke:none;fill-rule:nonzero;fill:rgb(100%,100%,100%);fill-opacity:1;" d="M 168.972656 185.742188 L 176.972656 185.742188 L 176.972656 196.742188 L 168.972656 196.742188 Z M 168.972656 185.742188 "/>
<g style="fill:rgb(100%,0%,0%);fill-opacity:1;">
  <use xlink:href="#glyph0-3" x="168.972656" y="194.405273"/>
</g>
<path style="fill:none;stroke-width:1.2;stroke-linecap:butt;stroke-linejoin:miter;stroke:rgb(0%,0%,100%);stroke-opacity:1;stroke-miterlimit:10;" d="M 198.460938 158.839844 L 200.15625 147.0625 "/>
<path style="fill:none;stroke-width:1.2;stroke-linecap:butt;stroke-linejoin:miter;stroke:rgb(0%,0%,0%);stroke-opacity:1;stroke-miterlimit:10;" d="M 200.15625 147.0625 L 201.851562 135.285156 "/>
<path style="fill:none;stroke-width:1.2;stroke-linecap:butt;stroke-linejoin:miter;stroke:rgb(0%,0%,0%);stroke-opacity:1;stroke-miterlimit:10;" d="M 217.164062 173.558594 L 207.8125 166.199219 "/>
<path style="fill:none;stroke-width:1.2;stroke-linecap:butt;stroke-linejoin:miter;stroke:rgb(0%,0%,100%);stroke-opacity:1;stroke-miterlimit:10;" d="M 207.8125 166.199219 L 198.460938 158.839844 "/>
<path style=" stroke:none;fill-rule:nonzero;fill:rgb(100%,100%,100%);fill-opacity:1;" d="M 195.460938 153.339844 L 202.460938 153.339844 L 202.460938 164.339844 L 195.460938 164.339844 Z M 195.460938 153.339844 "/>
<g style="fill:rgb(0%,0%,100%);fill-opacity:1;">
  <use xlink:href="#glyph0-1" x="195.460938" y="162.00293"/>
</g>
<path style="fill:none;stroke-width:1.2;stroke-linecap:butt;stroke-linejoin:miter;stroke:rgb(0%,0%,0%);stroke-opacity:1;stroke-miterlimit:10;" d="M 201.851562 135.285156 L 223.949219 126.441406 "/>
<path style="fill:none;stroke-width:1.2;stroke-linecap:butt;stroke-linejoin:miter;stroke:rgb(0%,0%,0%);stroke-opacity:1;stroke-miterlimit:10;" d="M 206.140625 139.597656 L 223.816406 132.527344 "/>
<path style="fill:none;stroke-width:1.2;stroke-linecap:butt;stroke-linejoin:miter;stroke:rgb(0%,0%,0%);stroke-opacity:1;stroke-miterlimit:10;" d="M 223.949219 126.441406 L 242.652344 141.160156 "/>
<path style="fill:none;stroke-width:1.2;stroke-linecap:butt;stroke-linejoin:miter;stroke:rgb(0%,0%,0%);stroke-opacity:1;stroke-miterlimit:10;" d="M 223.949219 126.441406 L 225.644531 114.664062 "/>
<path style="fill:none;stroke-width:1.2;stroke-linecap:butt;stroke-linejoin:miter;stroke:rgb(20%,80%,80%);stroke-opacity:1;stroke-miterlimit:10;" d="M 225.644531 114.664062 L 227.339844 102.886719 "/>
<path style="fill:none;stroke-width:1.2;stroke-linecap:butt;stroke-linejoin:miter;stroke:rgb(0%,0%,0%);stroke-opacity:1;stroke-miterlimit:10;" d="M 243.691406 143.757812 L 254.742188 139.335938 "/>
<path style="fill:none;stroke-width:1.2;stroke-linecap:butt;stroke-linejoin:miter;stroke:rgb(100%,0%,0%);stroke-opacity:1;stroke-miterlimit:10;" d="M 254.742188 139.335938 L 265.789062 134.917969 "/>
<path style="fill:none;stroke-width:1.2;stroke-linecap:butt;stroke-linejoin:miter;stroke:rgb(0%,0%,0%);stroke-opacity:1;stroke-miterlimit:10;" d="M 241.613281 138.558594 L 252.660156 134.136719 "/>
<path style="fill:none;stroke-width:1.2;stroke-linecap:butt;stroke-linejoin:miter;stroke:rgb(100%,0%,0%);stroke-opacity:1;stroke-miterlimit:10;" d="M 252.660156 134.136719 L 263.710938 129.71875 "/>
<path style="fill:none;stroke-width:1.2;stroke-linecap:butt;stroke-linejoin:miter;stroke:rgb(0%,0%,0%);stroke-opacity:1;stroke-miterlimit:10;" d="M 242.652344 141.160156 L 240.957031 152.9375 "/>
<path style="fill:none;stroke-width:1.2;stroke-linecap:butt;stroke-linejoin:miter;stroke:rgb(0%,0%,100%);stroke-opacity:1;stroke-miterlimit:10;" d="M 240.957031 152.9375 L 239.261719 164.714844 "/>
<path style=" stroke:none;fill-rule:nonzero;fill:rgb(100%,100%,100%);fill-opacity:1;" d="M 260.75 126.816406 L 268.75 126.816406 L 268.75 137.816406 L 260.75 137.816406 Z M 260.75 126.816406 "/>
<g style="fill:rgb(100%,0%,0%);fill-opacity:1;">
  <use xlink:href="#glyph0-3" x="260.75" y="135.479492"/>
</g>
<path style="fill:none;stroke-width:1.2;stroke-linecap:butt;stroke-linejoin:miter;stroke:rgb(0%,0%,100%);stroke-opacity:1;stroke-miterlimit:10;" d="M 239.261719 164.714844 L 228.214844 169.136719 "/>
<path style="fill:none;stroke-width:1.2;stroke-linecap:butt;stroke-linejoin:miter;stroke:rgb(0%,0%,0%);stroke-opacity:1;stroke-miterlimit:10;" d="M 228.214844 169.136719 L 217.164062 173.558594 "/>
<path style=" stroke:none;fill-rule:nonzero;fill:rgb(100%,100%,100%);fill-opacity:1;" d="M 232.261719 159.214844 L 246.261719 159.214844 L 246.261719 170.214844 L 232.261719 170.214844 Z M 232.261719 159.214844 "/>
<g style="fill:rgb(0%,0%,100%);fill-opacity:1;">
  <use xlink:href="#glyph0-1" x="232.261719" y="167.87793"/>
  <use xlink:href="#glyph0-2" x="239.239258" y="167.87793"/>
</g>
<path style="fill:none;stroke-width:1.2;stroke-linecap:butt;stroke-linejoin:miter;stroke:rgb(0%,0%,0%);stroke-opacity:1;stroke-miterlimit:10;" d="M 214.394531 173.160156 L 212.699219 184.9375 "/>
<path style="fill:none;stroke-width:1.2;stroke-linecap:butt;stroke-linejoin:miter;stroke:rgb(100%,0%,0%);stroke-opacity:1;stroke-miterlimit:10;" d="M 212.699219 184.9375 L 211.003906 196.714844 "/>
<path style="fill:none;stroke-width:1.2;stroke-linecap:butt;stroke-linejoin:miter;stroke:rgb(0%,0%,0%);stroke-opacity:1;stroke-miterlimit:10;" d="M 219.9375 173.957031 L 218.242188 185.734375 "/>
<path style="fill:none;stroke-width:1.2;stroke-linecap:butt;stroke-linejoin:miter;stroke:rgb(100%,0%,0%);stroke-opacity:1;stroke-miterlimit:10;" d="M 218.242188 185.734375 L 216.546875 197.511719 "/>
<path style=" stroke:none;fill-rule:nonzero;fill:rgb(100%,100%,100%);fill-opacity:1;" d="M 209.773438 191.613281 L 217.773438 191.613281 L 217.773438 202.613281 L 209.773438 202.613281 Z M 209.773438 191.613281 "/>
<g style="fill:rgb(100%,0%,0%);fill-opacity:1;">
  <use xlink:href="#glyph0-3" x="209.773438" y="200.276367"/>
</g>
<path style=" stroke:none;fill-rule:nonzero;fill:rgb(100%,100%,100%);fill-opacity:1;" d="M 224.339844 97.386719 L 230.339844 97.386719 L 230.339844 108.386719 L 224.339844 108.386719 Z M 224.339844 97.386719 "/>
<g style="fill:rgb(20%,80%,80%);fill-opacity:1;">
  <use xlink:href="#glyph0-4" x="224.339844" y="106.049805"/>
</g>
</g>
</svg>

<svg xmlns="http://www.w3.org/2000/svg" xmlns:xlink="http://www.w3.org/1999/xlink" width="300pt" height="300pt" viewBox="0 0 300 300"><defs><symbol overflow="visible"><path d="M.453 1.594v-7.938h4.5v7.938zm.5-.5h3.5v-6.938h-3.5zm0 0"/></symbol><symbol overflow="visible" id="a"><path d="M.89-6.563H2.08l2.906 5.485v-5.484h.86V0H4.656L1.75-5.484V0H.89zm0 0"/></symbol><symbol overflow="visible" id="b"><path d="M.89-6.563h.876v2.688H5v-2.688h.89V0H5v-3.125H1.766V0H.89zm0 0"/></symbol><symbol overflow="visible" id="c"><path d="M3.547-5.953c-.65 0-1.164.242-1.547.72-.375.48-.563 1.13-.563 1.952 0 .835.188 1.49.563 1.967.383.48.898.72 1.547.72.644 0 1.156-.24 1.53-.72.376-.476.564-1.132.564-1.968 0-.822-.187-1.474-.562-1.954-.375-.477-.887-.72-1.53-.72zm0-.734c.914 0 1.648.312 2.203.937.55.617.828 1.438.828 2.47 0 1.042-.277 1.87-.828 2.483-.555.617-1.29.922-2.203.922-.93 0-1.668-.305-2.22-.922C.774-1.41.5-2.237.5-3.28c0-1.033.273-1.853.828-2.47.55-.625 1.29-.938 2.22-.938zm0 0"/></symbol><symbol overflow="visible" id="d"><path d="M.89-6.563h3.766v.75h-2.89v1.938h2.61v.734h-2.61V0H.89zm0 0"/></symbol></defs><g><path fill="#fff" d="M0 0h300v300H0z"/><path d="M35.25 135.344l18.707 14.72M53.957 150.063l22.094-8.844M76.05 141.22l18.708 14.714M94.758 155.934l22.097-8.84M116.855 147.094l18.704 14.715M135.56 161.81l11.05-4.423" stroke-width="1.2" stroke="#000" stroke-miterlimit="10" fill="none"/><path d="M146.61 157.387l11.046-4.418M157.656 152.97l9.356 7.354" stroke-width="1.2" stroke="#00f" stroke-miterlimit="10" fill="none"/><path d="M167.012 160.324l9.35 7.36" stroke-width="1.2" stroke="#000" stroke-miterlimit="10" fill="none"/><path d="M150.656 147.47h14v11h-14zm0 0" fill="#fff"/><g fill="#00f"><use xlink:href="#a" x="150.656" y="156.132"/><use xlink:href="#b" x="157.634" y="156.132"/></g><path d="M173.59 167.285l-1.695 11.778" stroke-width="1.2" stroke="#000" stroke-miterlimit="10" fill="none"/><path d="M171.895 179.063L170.2 190.84" stroke-width="1.2" stroke="#f00" stroke-miterlimit="10" fill="none"/><path d="M179.133 168.082l-1.696 11.777" stroke-width="1.2" stroke="#000" stroke-miterlimit="10" fill="none"/><path d="M177.438 179.86l-1.696 11.78" stroke-width="1.2" stroke="#f00" stroke-miterlimit="10" fill="none"/><path d="M176.363 167.684l11.047-4.422" stroke-width="1.2" stroke="#000" stroke-miterlimit="10" fill="none"/><path d="M187.41 163.262l11.05-4.422" stroke-width="1.2" stroke="#00f" stroke-miterlimit="10" fill="none"/><path d="M168.973 185.742h8v11h-8zm0 0" fill="#fff"/><use xlink:href="#c" x="168.973" y="194.405" fill="#f00"/><path d="M198.46 158.84l1.696-11.778" stroke-width="1.2" stroke="#00f" stroke-miterlimit="10" fill="none"/><path d="M200.156 147.063l1.696-11.778M217.164 173.56l-9.35-7.36" stroke-width="1.2" stroke="#000" stroke-miterlimit="10" fill="none"/><path d="M207.813 166.2l-9.352-7.36" stroke-width="1.2" stroke="#00f" stroke-miterlimit="10" fill="none"/><path d="M195.46 153.34h7v11h-7zm0 0" fill="#fff"/><use xlink:href="#a" x="195.461" y="162.003" fill="#00f"/><path d="M201.852 135.285l22.097-8.844M206.14 139.598l17.676-7.07M223.95 126.44l18.702 14.72M223.95 126.44l1.695-11.776" stroke-width="1.2" stroke="#000" stroke-miterlimit="10" fill="none"/><path d="M225.645 114.664l1.695-11.777" stroke-width="1.2" stroke="#3cc" stroke-miterlimit="10" fill="none"/><path d="M243.69 143.758l11.052-4.422" stroke-width="1.2" stroke="#000" stroke-miterlimit="10" fill="none"/><path d="M254.742 139.336l11.047-4.418" stroke-width="1.2" stroke="#f00" stroke-miterlimit="10" fill="none"/><path d="M241.613 138.56l11.047-4.423" stroke-width="1.2" stroke="#000" stroke-miterlimit="10" fill="none"/><path d="M252.66 134.137l11.05-4.418" stroke-width="1.2" stroke="#f00" stroke-miterlimit="10" fill="none"/><path d="M242.652 141.16l-1.695 11.778" stroke-width="1.2" stroke="#000" stroke-miterlimit="10" fill="none"/><path d="M240.957 152.938l-1.695 11.777" stroke-width="1.2" stroke="#00f" stroke-miterlimit="10" fill="none"/><path d="M260.75 126.816h8v11h-8zm0 0" fill="#fff"/><use xlink:href="#c" x="260.75" y="135.479" fill="#f00"/><path d="M239.262 164.715l-11.047 4.422" stroke-width="1.2" stroke="#00f" stroke-miterlimit="10" fill="none"/><path d="M228.215 169.137l-11.05 4.422" stroke-width="1.2" stroke="#000" stroke-miterlimit="10" fill="none"/><path d="M232.262 159.215h14v11h-14zm0 0" fill="#fff"/><g fill="#00f"><use xlink:href="#a" x="232.262" y="167.878"/><use xlink:href="#b" x="239.239" y="167.878"/></g><path d="M214.395 173.16l-1.696 11.778" stroke-width="1.2" stroke="#000" stroke-miterlimit="10" fill="none"/><path d="M212.7 184.938l-1.696 11.777" stroke-width="1.2" stroke="#f00" stroke-miterlimit="10" fill="none"/><path d="M219.938 173.957l-1.696 11.777" stroke-width="1.2" stroke="#000" stroke-miterlimit="10" fill="none"/><path d="M218.242 185.734l-1.695 11.778" stroke-width="1.2" stroke="#f00" stroke-miterlimit="10" fill="none"/><path d="M209.773 191.613h8v11h-8zm0 0" fill="#fff"/><use xlink:href="#c" x="209.773" y="200.276" fill="#f00"/><path d="M224.34 97.387h6v11h-6zm0 0" fill="#fff"/><use xlink:href="#d" x="224.34" y="106.05" fill="#3cc"/></g></svg>
